X:1
T:Sonata for viola da gamba and harpsichord (harp sound)
T:BWV 1027M
T:J. S. Bach
%%score { 1 | 2 } { 3 | 4 }
L:1/8
Q:1/4=66
M:12/8
K:G
V:1 treble nm="ハープ"
V:2 bass 
V:3 treble nm="ハープ"
V:4 bass 
V:1
 Bd/c/B/A/ BGA/B/4c/4{c} Bd/c/B/A/ B/G/de/f/4g/4 | fg/f/e/d/ gdd/e/4=f/4{f} ef/e/d/c/ dgB/c/4d/4 | %2
 cd/c/B/A/ B/A/G/A/B/c/ d/c/e/d/c/B/ A/G/F/E/D | Ta12- | a6- a g2- g f2- | %5
 f e2- eaT^c d d2- d/c/e/d/c/B/ | ^ATB^c- c/B/=A/G/A/F/ ^GT^AB- B/A/c/B/d/c/ | %7
 ed^c B/d/c/^A/B/d/ g3- g/f/f/^e/e/f/ | f>ee/d/ g/f/e/d/T^c/B/ Bf/e/d/c/ Bff/g/4a/4 | %9
 gTfe- eg/f/e/d/{d} ^ce/d/c/B/ Aee/f/4g/4 | fTed- df/e/d/^c/ B/A/G/F/G- G/e/d/c/B/A/ | %11
 g/f/e/d/b- bag f/g/ae f/e/g/f/e/f/ | Td12- | d6- d c2- c B2- | B A2- AdTF G3- G/B/A/c/B/A/ | %15
 B/e/d/c/B/A/ BGA/B/4c/4{c} Bd/c/B/A/ B/G/de/f/4g/4 | fg/f/e/d/ gdd/e/4=f/4 ef/e/d/c/ dgB/c/4d/4 | %17
 cd/c/B/A/ B/A/G/A/B/c/ d/c/e/d/c/B/ A a2- | a/g/b/a/g/f/ gTab- b/a/g/f/g/e/ f3- | %19
 f/e/g/f/a/^g/{b} !trill(!T^a2 =a a/c'/b/=g/a/f/ !trill(!Tg2- g/-f/4!trill)!g/4 | %20
 f/e/e/^d/d/e/ e/f<Tde/ e2 z B/A/G/F/E | z z e/d/ c/B/A z z2 z A/G/F/E/D | %22
 z z d/c/ B/A/G z g/=f/e/d/c/B/{B} c>ag/^f/ | e/d/c/B/A/G/ F/G/G/A/A- A/F/ G2- G/A/DTF | %24
 G/B/d/c/B/A/ BGA/B/4c/4{c} Bd/c/B/A/ B/G/A/c/B/d/ | !trill(!T^c6 !trill)!=c6- | c2 z z2 z T_B6 | %27
 A12 | z12 |[M:3/4][Q:1/4=120] z6 | z6 | z6 | z6 | z2 z A d/e/f | Tfe e^c/d/ e/f/g | %35
 Tgf fa g/f/e/d/ | bd'/^c'/ ba g/f/e/d/ | e/d/^c/B/ A2 d2 | Td6- | d4 g2- | %40
 g/g/f/g/ e/g/d/g/ ^c/g/B/g/ | Ag f/e/f/g/ Te>d | d4 z d- | d/B/^c/d/ e/f/g ATc | d2 z2 z2 | %45
 !trill(!Tf6 | g2 z D G/A/B | TBA AF/G/ A/B/c | TcB Bd c/B/A/G/ | =FA/G/ Fd/c/ B/A/G/F/ | %50
 E2 z a g/f/e/d/ | g2 z g/f/ e/d/c/B/ | c2 z2 z2 | z2 z2 d2- | d/d/c/B/ c/d/e/c/ F/B/A/G/ | %55
 A/B/c/A/ D/G/F/E/ F/G/A/F/ | B, z z2 z G- | G/E/F/G/ A/B/c DF | G/D/E/F/ G/A/B/c/ dB | %59
 GE A/B/c/d/ e/d/c/B/ | A/c/B/A/ G/F/G/A/ TF>G | G2 z2 z2 | z6 | z2 z e B/A/G | GA Ac/B/ A/G/F | %65
 FG G2 z B | ef/g/ a/b/a/g/ f/e/^d/^c/ | B2 z/ e/d/e/ c/e/A/e/ | A/c/B/c/ A/c/G/c/ F/c/E/c/ | %69
 ^DF B2- B/A/G/F/ | E/F/G/A/ B/A/B/c/ FT^d | Te6- | e6- | e/g/f/g/ e/g/d/g/ ^c/g/B/g/ | %74
 ^c/e/d/e/ c/e/B/e/ ^A/e/c/e/ | F2- F/d/^c/B/ T^A>B | B2 z g d/c/B | Bc ce/d/ c/B/A | AB B4- | %79
 B2 T^c4 | d2 z2 f2- | f/f/e/^d/ e/f/g/e/ A2- | A/e/d/^c/ d/e/f/d/ G2- | %83
 G/d/^c/B/ c/d/e/c/ F/B/A/G/ | A/B/^c/A/ D/G/F/E/ F/G/A/F/ | B/^c/d- d/f/e- e/f/g- | %86
 g/b/a- a/f/g- g/d'/^c' | d'^c'/b/ a/g/f/e/ d/e/f | Tfe e^c/d/ e/f/g | Tgf fa g/f/e/d/ | %90
 bd'/^c'/ ba g/f/e/d/ | ^c/B/A/e/{G} F>E TE>D | D/E/F/G/ A/B/c/d/ e/f/g | Tgf fd/e/ f/g/a | %94
 Tag g4- | g2 f2- f/g/a/f/ | d=f/e/ f4- | f/e/d/c/ d/c/B/c/ d/e/=f/d/ | ^ce/^d/ e4- | %99
 e/g/f/e/ ^d/^c/B/c/ d/e/f/d/ | Bd/^c/ d4- | d/f/e/d/ ^c/B/A/B/ c/d/e/c/ | Ac/B/ c4- | %103
 c/e/d/c/ B/A/G/A/ B/c/d/B/ | G2- G/A/B/c/ d/e/f/g/ | a/g/f/e/ d2 z2 | z2 z D G/A/B | %107
 TBA AF/G/ A/B/c | TcB Bd c/B/A/G/ | eg/f/ ed c/B/A/G/ | A/G/F/E/ D2 z d- | d/B/^c/d/ e/f/g ATc | %112
 d/A/B/^c/ d/e/f/g/ af | Td6- | d/d/c/d/ B/d/A/d/ ^G/d/B/d/ | Tc6- | c/c/B/d/ A/c/G/c/ F/c/A/c/ | %117
 TB6- | B3 B/A/ BB | A3 A/G/ AA | G3 c/B/ AG | Fc/B/ A/G/F/E/ .D2 | z6 | z6 | z2 z D G/A/B | %125
 TBA AF/G/ A/B/c | TcB Bd c/B/A/G/ | eg/f/ ed c/B/A/G/ | Ad/c/ dd dd | dc/B/ cc cc | cB/A/ B2 z2 | %131
 z2 z2 e2- | e/e/d/c/ d/e/f/d/ G/c/B/A/ | B/c/d/B/ E/A/G/F/ G/A/B/G/ | Cc z D G/A/B | %135
 TBA AF/G/ A/B/c | TcB Bd c/B/A/G/ | eg/f/ ed c/B/A/G/ | F/D/E/F/ G/A/B/c/ dB | %139
 GE A/B/c/d/ e/d/c/B/ | A/c/B/A/ G/F/G/A/ F>G | !fermata!G6 | z6 | %143
[M:4/4][Q:1/4=76] z4 e/^g/a/c'/ e/g/a/c'/ | f/e/f/a/ f/e/f/a/ B/^d/e/g/ B/d/e/g/ | %145
 ^GBGE G/A/B/^e/ ^g/a/b/g/ | a^c'af ^D/E/F/^B/ ^d/e/f/^g/ | ^e^gfa fafa | %148
 A/c/B/F/ G/^D/E/G/ ^B/d/e/g/ B/d/e/g/ | ^ced=f- f/e/f/d/ Te>d | %150
 A/^c/d/f/ A/c/d/f/ B/A/B/d/ B/A/B/d/ | G/B/^c/e/ G/B/c/e/ F/E/F/A/ F/E/F/A/ | %152
 D/E/F/A/ d/e/f/a/ ^dfdB | E/F/G/B/ e/f/g/e/ ^A^cAF | A/c/B/F/ G/^D/E/G/ ^A>B TF>E | TE8- | E8- | %157
 E8- | E8- | Eg{f} e{d}^c{B} ^A3/2B/8A/8^G/8A/8 TA3/2G/4A/4 | !fermata!B8 |[M:2/2][Q:1/4=180] z8 | %162
 z8 | z8 | z8 | z8 | z8 | z8 | z8 | z4 z2 AG | F2 D2 d2 A2 | TF2 ED A2 A2 | A2 GF GA B2 | %173
 B2 E2 E2 GF | G2 FE FG A2 | A2 D2 D2 d2- | d2 c4 B2- | B2 AG FDEF | GDEF GABc | dedc BAGF | %180
 E2 ed cBAG | FEDE FGAF | d2 D2 D2 F2 | G4 z2 B2 | AB^cd GABc | F2 f4 e2- | e2 de T^c3 d | %187
 d2 A2 d2 f2 | a2 d2 f2 a2 | f2 ^d2 B2 d2 | f2 a2 f2 ^d2 | EGFE BGFE | D=FED BFED | dcBA ^GFEF | %194
 ^GABc dcdB | cde=f ABcd | Bcde ^GABc | ABcd F^GAB | ^GABE GB e2 | Te8- | e8- | e4 d4- | %202
 dedc BA^GB | A2 ed c2 A2 | a2 e2 c2{B} A2 | =fefg fedc | Bcdc BAG=F | ede=f edcB | ABcd ef^ge | %209
 a3 b ^g3 a | a2 e2 b4 | a6 gf | eB e4 d2- | d2 ^cB ^A2 F2 | d4 ^c4 | B6 A^G | F2 f4 e2- | %217
 e2 d4 ^c2- | c2 B2 e4- | ed^cd egfe | d2 B2 b2 f2 | d2{^c} B2 f2 f2 | f2 e^d ef g2 | %223
 g2 ^c2 c2 e2- | e2 d^c de f2 | f2 B2 B2 e2 | d3 ^c Tc3 B | B4 z2 f2 | d2 B2 z2 a2 | %229
 f2 ^d2 z2 c'2 | a2 f2 ^d3 e | e2 B2 G2 E2 | z2 d2 B2 ^G2 | z2 =f2 d2 B2 | ^GABc d=fed | %235
 ^c2 z2 z2 e2 | ^c2 A2 z2 g2 | e2 ^c2 z2 _b2 | g2 e2 ^c3 d | d2 A2 F2 D2 | z2 c2 A2 F2 | %241
 z2 e2 c2 A2 | FGAB c2 F2 | GDEF GABc | dedc BAGF | E2 ed cBAG | FEDE FGAF | d2 D2 D2 F2 | G4 z4 | %249
 z8 | z4 z2 G=F | E2 C2 c2 G2 | E2 DC G2 G2 | G2 =FE FG A2 | A2 D2 D2 =F2- | F2 ED E=F G2 | %256
 G2 C2 C2 c2- | c2 B4 A2- | A2 G=F EDE^F | GFGA Bcde | dgfe dcBA | GBcd efge | agfg agfe | %263
 fagf edcd | BAB^c defg | ^c2 a2 B2 g2 | A^cBA G2 g2 |{g} f3 e Te3 d | d2 A2 d2 f2 | a2 f2 d2 A2 | %270
 F2 A2 DEFG | ABcB AGAF | GBAG dBAG | =FAGF dAGF | E^GFE dcBA | ^GABc dcdB | c2 c'4 b2- | %277
 b2 ag f2 d2 | b4 a4 | g6 fe | d2 d'4 c'2- | c'2 ba ^g2 e2 | c'4 b4 | a6 gf | e^d e4 =d2- | %285
 d2 c4 BA | GFEF GBAG | FGAF D2 d2 | Td8- | d8- | d8- | d4- dcBA | Bcde GABc | ABcd FGAB | %294
 GABc EFGA | F4- FDEF | GBdc BGFG | g2 d2 B2{A} G2 | ede=f edcB | ABcB AGFE | dcde dcBA | %301
 GABc defd | g3 a Tf3 g | !fermata!g8 |] %304
V:2
 G,,B,,D, G,B,D G,B,,D, G,,B,,G,, | D,DC B,/A,/C/B,/A,/G,/ CA,E, F,G,E, | %2
 A,F,D, G,B,A, B,CG, D2 z | D,,F,,A,, D,F,A, DF,A, D,F,D, | A,,A,G, F,E,D, G,E,B,, ^C,D,B,, | %5
 E,^C,A,, D,F,E, F,G,D, A,A,,G,, | F,,^G,,^A,, B,,^C,^D, E,2 z ^E,2 z | %7
 F,2 z ^G,2 z ^A,2 z B,A,G, | ^A,F,G, E,F,F,, B,,2 F,/E,/ D,/^C,/B,,^D, | %9
 E,B,/A,/G,/F,/ E,E,,G,, A,,2 E,/D,/ ^C,/B,,/A,,C, | D,A,/G,/F,/E,/ D,D,,F, G,A,B, E,F,G, | %11
 ^C,D,E, A,,B,,C, D,F,,G,, A,,G,,A,, | D,,F,,A,, D,F,D, G,B,,D, G,,B,,G,, | %13
 D,DC B,/A,/C/B,/A,/G,/ CA,E, F,G,E, | A,F,D, G,B,A, B,CA, D2 z | %15
 G,,B,,D, G,B,D G,B,,D, G,,B,,G,, | D,DC B,A,G, CA,E, F,G,E, | A,F,D, G,,B,,A,, B,,C,A,, D,2 C, | %18
 B,,^C,^D, E,F,^G, A,2 z ^A,2 z | B,2 z ^C2 z ^D2 z EDC | ^DB,C A,B,B,, E,,2 B,/A,/ G,/F,/E,^G, | %21
 A,E,/D,/C,/B,,/ A,,2 C, D,,2 A,/G,/ F,/E,/D,F, | G,D,/C,/B,,/A,,/ G,,A,,B,, C,D,E, A,,B,,C, | %23
 F,,G,,A,, D,,E,,F,, G,,B,,C, D,C,D, | G,,2 z z2 z =F,,2 z z2 z | E,,2 z z2 z _E,,2 z z2 z | %26
 D,,3 z3 ^C,,6 | D,,12 | z12 |[M:3/4] G,,2 B,,2 G,,2 | D,2 F,2 D,2 | G,2 z B, G,B, | CB, CD EE, | %33
 D,A,/G,/ F,E, F,D, | A,G,/F,/ E,A,, ^C,A,, | D,2 z2 D,,2 | A,,2 z2 E,,2 | A,G, F,E, F,D, | %38
 G,A, G,F, E,D, | E,B,, E,F, G,E, | A,,B,, ^C,B,, A,,G,, | F,,E,, D,,G,, A,,/G,,/A,, | %42
 D,,2 z D,/^C,/ B,,A,, | G,,A,,/B,,/ ^C,/D,/E,/D,/ C,A,, | D,D,, z F,/E,/ D,F, | %45
 A,C/B,/ A,/G,/F,/E,/ D,/C,/B,,/A,,/ | G,,2 z G,/A,/ B,G, | DD, z D,/E,/ F,D, | %48
 G,G,, z B,,/A,,/ G,,B,, | D,=F,/E,/ D,/C,/B,,/A,,/ G,,/=F,,/E,,/D,,/ | C,,C/B,/ CC CC | %51
 CB,/A,/ B,B, B,B, | B,A,/G,/ A,D, G,A, | B,B,, E,F, G,G,, | C,E,/D,/ E,C, D,E, | %55
 F,D, B,,C, D,B,, | E,A,/G,/ F,/G,/D/C/ B,/A,/D, | CC,/B,,/ C,A,, D,D,, | G,,2 z2 G,,2 | %59
 C,2 z2 A,,2 | D,F, G,C, D,D,, | G,,B,/A,/ G,/F,/E,- E,^G, | A,/B,/A,/G,/ F,D,- D,E,/F,/ | %63
 G,/A,/G,/F,/ E,/D,/^C,- C,^D,/E,/ | F,/G,/F,/E,/ ^D,B,, ^C,D, | E,E,, z/ B,,/^C,/^D,/ E,/F,/G, | %66
 PG,F, F,^D,/E,/ F,/G,/A, | PA,G, G,B, A,/G,/F,/E,/ | CE/D/ CB, A,/G,/F,/E,/ | %69
 F,/E,/^D,/^C,/ B,,D, E,G, | C,B,, A,,G,,/A,,/ B,,B,,, | E,,2 z B,, E,D, | E,2 z G,/F,/ G,E, | %73
 F,F,, F,4- | F,^G, ^A,^C F,A, | D,^C, B,,E, F,F,, | B,,B,/A,/ G,E, F,^G, | %77
 A,/B,/A,/G,/ F,D, E,F, | G,G,, z/ F,/G,/A,/ B,B,, | E,/D,/^C,/B,,/ A,,E, A,A,, | %80
 D,,F,/E,/ D,^C, B,,A,, | G,,G,/F,/ G,G, G,G, | G,F,/E,/ F,F, F,F, | F,E,/D,/ E,A,, D,E, | %84
 F,F,, B,,^C, D,D,, | G,,F,, E,,G,, A,,B,, | ^C,,^C, F,E,/D,/ E,^A,, | %87
 B,,E,/D,/ ^C,/E,/A,/G,/ F,/E,/D, | G,G,,/F,,/ G,,E,, A,,A,,, | D,,2 z2 D,2 | G,2 z2 E,2 | %91
 A,^C, D,G, A,A,, | D,,2 z D, G,/A,/B, | PB,A, A,F,/G,/ A,/B,/C | PCB, B,G,/F,/ E,D, | %95
 C,/D,/E,/C,/ D,C, B,,A,, | G,,2 z2 G,,2 | C,2 z2 ^G,,2 | A,,2 z2 F,,2 | B,,2 z2 B,,2 | %100
 E,2 z2 E,,2 | A,,2 z2 A,,2 | D,2 z2 D,,2 | G,,2 z2 G,,2 | C,2 z/ C/B,/A,/ G,G,, | %105
 D,2 z/ D,/C,/B,,/ A,,D, | G,,2 B,,2 G,,2 | D,2 z D,/E,/ F,D, | G,2 z2 G,,2 | C,2 z2 A,,2 | %110
 D,2 z F,/E,/ D,/^C,/B,,/A,,/ | G,,G, ^C,A,,/B,,/ C,A,, | D,2 z2 D,,2 | G,,2 z D/C/ B,/A,/^G,/F,/ | %114
 ^G,E,/F,/ G,B, EG, | A,A,, A,B, CA, | F,D,/E,/ F,A, DF, | G,G,, G,A, B,G, | %118
 E,/G,/F,/G,/ E,/G,/D,/G,/ C,/G,/B,,/G,/ | C,/E,/D,/E,/ C,/E,/B,,/E,/ A,,/E,/G,,/E,/ | %120
 A,,/C,/B,,/C,/ A,,/C,/G,,/C,/ F,,/C,/E,,/C,/ | D,,4 z/ C,/B,,/A,,/ | %122
 B,,/A,,/G,,/F,,/ G,,/A,,/B,,/A,,/ G,,/F,,/E,,/D,,/ | C,,/G,,/C,/D,/ C,/B,,/A,,/G,,/ F,,D,, | %124
 G,,/D,/E,/F,/ G,B, E,G, | C,C F,A, D,F, | D,E, G,,D, z/ G,,/A,,/B,,/ | C,C,, z/ E,/F,/G,/ A,G, | %128
 F,/A,/^G,- G,B,/A,/ G,/F,/E,/D,/ | C,E, A,,A,/G,/ F,/E,/D,/C,/ | B,,D, G,,G, A,B, | %131
 CE, F,^G, A,C, | D,E, F,D, E,F, | G,,G, CB,/A,/ E,C, | A,/G,/F,/E,/ D,B,, E,D, | %135
 C,/B,,/C,/A,,/ D,2 D,,2 | G,,2 z2 G,,2 | C,,2 z C, F,,A,, | D,,D,/C,/ G,,G, z/ G,,/A,,/B,,/ | %139
 C,/D,/E,/D,/ C,B,, A,,B,,/C,/ | D,B,, E,C, D,D,, | !fermata!G,,6 | z6 | %143
[M:4/4] E,E,,E,E,, E,E,,E,E,, | E,E,,E,E,, E,E,,E,E,, | D,D,,D,D,, ^C,^C,,C,C,, | %146
 ^C,^C,,C,C,, C,C,,C,C,, | ^C,^C,,C,C,, =C,=C,,C,C,, | B,,B,,,B,,B,,, _B,,_B,,,B,,B,,, | %149
 A,,A,,,A,,A,,, A,,A,,,A,,A,,, | D,,D,D,,D, D,,D,C,,D, | D,,D,D,,D, D,,D,D,,D, | %152
 C,,C,C,,C, B,,,B,,B,,,B,, | B,,,B,,B,,,B,, B,,,B,,B,,,B,, | B,,,B,,B,,,B,, B,,,B,,B,,,B,, | %155
 E,CE,C D,B,D,B, | C,A,C,A, B,,G,B,,G, | A,,F,A,,F, G,,G,G,,G, | C,^G,B,,G, A,E,ED, | %159
 ^C,^A, G,E, G,C, F,F,, | !fermata!B,,8 |[M:2/2] z8 | z2 G,,A,, B,,2 D,2 | G,F,G,A, B,A,G,F, | %164
 E,4 z2 C,2 | F,,2 F,G, B,A,G,F, | D,4 z2 B,,2 | E,,2 E,F, G,F,E,D, | ^C,2 D,2 G,2 C,2 | %169
 F,2 B,,2 E,2 A,,2 | B,,2 A,,G,, F,,G,,F,,E,, | D,,4 z2 F,,2 | G,,F,,G,,A,, B,,2 G,,2 | %173
 A,,4 z2 ^C,2 | D,E,F,G, A,B,A,G, | F,G,F,E, D,^C,B,,A,, | G,,2 E,2 F,,2 D,2 | E,,2 C,2 D,,2 D,C, | %178
 B,,2 G,,2 G,2 D,2 | B,,2{A,,} G,,2 D,2 D,2 | D,2 C,B,, C,D, E,2 | E,2 A,,2 A,,2 C,2- | %182
 C,2 B,,A,, B,,C, D,2 | D,2 G,,2 G,,2 G,2- | G,2 F,4 E,2- | E,2 D,^C, B,,A,,B,,C, | %186
 D,E,F,G, A,2 A,,2 | D,4 z4 | D,4 z4 | ^D,4 z4 | z2 B,2 ^D,2 B,,2 | E,4 z4 | ^G,4 z4 | B,4 z4 | %194
 z2 E2 ^G,2 E,2 | A,2 A,,2 C,2 A,,2 | z2 E,2 ^G,2 E,2 | z2 A,2 C2 A,2 | E3 D CB,A,^G, | %199
 A,2 B,2 C2 A,2 | ^G,2 F,2 E,2 G,2 | F,2 A,2 B,2 B,,2 | E,4 z2 E,,2 | A,,2 C,B,, A,,2 C,B,, | %204
 A,,2 C,B,, A,,B,,C,B,, | D,4 z2 D,,2 | G,,4 z2 G,,2 | C,4 z2 C,2 | =F,4 z D,C,B,, | %209
 A,,2 D,2 E,2 E,,2 | A,,B,,C,D, E,B,,E,D, | C,B,,C,A,, B,,^C,^D,B,, | E,F,G,A, B,^CB,A, | %213
 G,F,G,E, F,^G,^A,F, | B,,^C,D,E, F,G,F,E, | D,^C,D,B,, C,^D,^E,C, | F,^G,A,B, ^CDCB, | %217
 ^A,F,B,=A, ^G,F,G,^A, | B,A,G,F, E,F,G,E, | F,2 E,2 D,2 ^C,2 | B,,2 D,^C, B,,2 D,C, | %221
 B,,2 D,^C, B,,C,D,C, | E,4 z2 E,,2 | A,,4 z2 A,,2 | D,4 z2 D,2 | G,2 F,E, D,2 ^C,2 | %226
 B,,2 E,2 F,2 F,,2 | B,,D,^C,B,, F,E,D,C, | B,,F,E,^D, A,G,F,E, | ^D,A,G,F, CB,A,G, | %230
 F,E,^D,^C, B,,A,,G,,F,, | E,,G,F,E, B,A,G,F, | E,B,A,^G, DCB,A, | ^G,B,A,G, =FEDC | %234
 B,A,^G,F, E,D,C,B,, | A,,^C,B,,A,, E,D,C,B,, | A,,E,D,^C, G,F,E,D, | ^C,E,D,C, _B,A,G,F, | %238
 E,D,^C,B,, A,,G,,F,,E,, | D,,F,E,D, A,G,F,E, | D,A,G,F, CB,A,G, | F,CB,A, _EDCB, | %242
 A,G,F,E, D,C,B,,A,, | G,,2 G,A, B,2 G,2 | z2 G,,A,, B,,C,D,B,, | C,2 G,,2 A,,2 C,2 | D,4 z2 F,,2 | %247
 G,,A,,B,,C, D,E,D,C, | B,,C,B,,A,, G,,=F,,E,,D,, | C,,C,D,E, =F,E,F,G, | A,2 E,2 =F,2 G,2 | %251
 A,,2 G,,=F,, E,,F,,E,,D,, | C,,4 z2 E,,2 | =F,,E,,F,,G,, A,,2 F,,2 | G,,4 z2 B,,2 | %255
 C,D,E,=F, G,A,G,F, | E,=F,E,D, C,B,,A,,G,, | F,,2 D,2 E,,2 C,2 | D,,2 B,,2 C,,2 C,2 | %259
 B,,2 G,,2 G,2 D,2 | B,,2{A,,} G,,2 D,2 D,2 | D,2 C,B,, C,D, E,2 | E,2 A,,2 A,,2 C,B,, | %263
 C,2 B,,A,, B,,C, D,2 | D,2 G,,2 G,,2 G,2- | G,2 F,4 E,2- | E,2 D,^C, B,,A,,B,,C, | %267
 D,E,F,G, A,2 A,,2 | D,4 z4 | F,4 z4 | A,4 z4 | z2 D2 F,2 D,2 | G,4 z4 | G,,4 z4 | ^G,,4 z4 | %275
 z2 E,2 ^G,,2 E,,2 | A,,E,A,G, F,A,G,F, | E,D,E,C, D,E,F,D, | G,A,B,C DED^C | B,A,B,G, A,B,^CA, | %280
 D,E,F,G, A,B,A,G, | =F,E,F,D, E,^F,^G,E, | A,B,CD EB,ED | CB,CA, B,^C^DB, | E,F,G,A, B,CB,A, | %285
 ^G,E,A,=G, F,D,G,F, | E,2 D,2 E,2 C,2 | D,2 C,2 B,,2 A,,2 | G,,2 B,,2 D,2 G,2 | F,2 E,2 D,2 C,2 | %290
 B,,2 D,2 G,2 G,,2 | D,,2 D,C, B,,2 A,,2 | G,,2 B,,2 E,,2 G,,2 | F,,2 A,,2 D,,2 F,,2 | %294
 E,,2 G,,2 A,,2 A,,,2 | D,,2 D,C, B,,2 A,,2 | G,,2 B,,A,, G,,2 B,,A,, | G,,2 B,,A,, G,,A,,B,,A,, | %298
 C,4 z2 C,2 | F,,4 z2 F,,2 | B,,4 z2 B,,2 | E,,4 z C,B,,A,, | G,,A,,B,,C, D,2 D,,2 | %303
 !fermata!G,,8 |] %304
V:3
"^Adagio" Td12- | d6- d c2- c B2- | B A2- AdF G3- G/B/A/G/F/E/ | %3
 F/E/A/G/F/E/ FDE/F/4G/4 FA/G/F/E/ F/D/AB/^c/4d/4 | ^cd/c/B/A/ dAA/B/4=c/4 Bc/B/A/G/ AdF/G/4A/4 | %5
 GA/G/F/E/ F/E/D/E/F/G/ A/G/B/A/G/F/ E z e- | e/d/f/e/d/^c/ d!turn!ef- f/e/d/c/d/B/ !trill(!Tc3- | %7
 c/B/d/^c/e/^d/ T^e2- e- e/g/f/=d/=e/c/ !trill(!Td2- d/c/4!trill)!d/4 | %8
 ^c/B/B/^A/A/B/ B/c<PAB/ B2 z f/e/d/c/B | z z B/A/ G/F/E z z2 z e/d/^c/B/A | %10
 z2 A/G/ F/E/.D z d/c/B/A/G/F/ G>ed/^c/ | B/A/g/f/e/d/ ^c/d/d/e/e- e/c/ d2- d/e/APc | %12
 FA/G/F/E/ FDA/B/4c/4{c} Bd/c/B/A/ B/G/de/f/4g/4 |{g} fg/f/e/d/ gdd/e/4=f/4 ef/e/d/c/ dgB/c/4d/4 | %14
 cd/c/B/A/ B/A/G/A/B/c/ d/c/e/d/c/B/ A/G/F/E/D | Td12- | d6- d c2- c B2- | %17
 B A2- AdF G g2- g/f/a/g/f/e/ | ^d!turn!ef- f/e/=d/c/d/B/ ^c!turn!^de- e/d/f/e/g/f/ | %19
 agf e/g/f/^d/e/g/ Pc'3- c'/b/b/^a/a/b/ | b>aa/g/ c'/b/a/g/Pf/e/ eB/A/G/F/ EBB/c/4d/4 | %21
 cPBA- Ac/B/A/G/ FA/G/F/E/ DAA/B/4c/4 | BAG- Gb/a/g/=f/ e/d/c/B/c- c/a/g/^f/e/d/ | %23
 c/B/A/G/e- edc B/c/dA B/A/c/B/A/B/ | TG12- | G_B/A/G/F/ GEF/G/4A/4 GB/A/G/F/ G/=B/c/_e/_A/G/ | %26
 F2 z z2 z Pg6 | f12 | z12 |[M:3/4]"^Allegro ma non presto" z2 z D G/A/B | PBA AF/G/ A/B/c | %31
 TcB Bd c/B/A/G/ | eg/f/ ed c/B/A/G/ | A/G/F/E/ D2 z d- | d/B/^c/d/ e/f/g A!turn!c | %35
 d/A/B/^c/ d/e/f/g/ af | dB e/f/g/a/ bB | ^cA d/e/f/g/ a/=c/B/A/ | B/d/c/d/ B/d/A/d/ G/d/F/d/ | %39
 G/B/A/B/ G/B/F/B/ E/B/D/B/ | ^CA, A4- | A/A/B/^c/ d/c/d/e/ Pc>d | d/D/E/F/ G/A/B/^c/ d/e/f | %43
 Pfe e^c/d/ e/f/g | Pgf fa g/f/e/d/ | ce/d/ ca/g/ f/e/d/c/ | B/A/G/F/ G/A/B/c/ dg- | %47
 g/e/f/g/ a/b/c' d!turn!f | g2 z2 z2 | z2 b4- | b/b/a/^g/ a/b/c'/a/ d2- | d/a/g/f/ g/a/b/g/ c2- | %52
 c/g/f/e/ f/g/a/f/ B/e/d/c/ | d/e/f/d/ G/c/B/A/ B/c/d/B/ | E/F/G- G/B/A- A/B/c- | %55
 c/e/d- d/f/e- e/g/f | gf/e/ d/c/B/A/ G/A/B | PBA AF/G/ A/B/c | TcB Bd c/B/A/G/ | %59
 eg/f/ ed c/B/A/G/ | f/e/d/a/{c} B>A PA>G | G2 z g d/c/B | Bc ce/d/ c/B/A | AB B2 Pe2- | %64
 e^d/e/ fd B2- | B/c/B/A/ B/^d/e/f/ ge | ^c/B/A/B/ c/e/f/g/ af |{e} ^d^c/B/ Te4- | e4- eE | %69
 A2- A/c/B/A/ G/F/E/F/ | G/A/B/^c/ ^d/B/e e/4f/4g/f/e/ | e/g/f/g/ e/g/d/g/ ^c/g/B/g/ | %72
 ^c/e/d/e/ c/e/B/e/ ^A/e/B/e/ |{B} ^A3 B ^cd | Te6- | e/^A/B/^c/ d/e/f/g/ Pc>B | B2 z2 z2 | z6 | %78
 z2 z d A/G/F | FG GB/A/ G/F/E | EF F/A/B/^c/ d/e/f/d/ |{^c} B2 z e d/c/B/A/ | %82
 Md2 z d/^c/ B/A/G/F/ | Gg z2 z2 | z2 z2 a2- | a/a/g/f/ g/a/b/g/ ^c/f/e/d/ | %86
 e/f/g/e/ A/d/^c/B/ c/d/e/c/ | F/A/G z2 z d- | d/B/^c/d/ e/f/g A!turn!c | d/A/B/^c/ d/e/f/g/ af | %90
 dB e/f/g/a/ b/a/g/f/ | e/g/f/e/ d/^c/d/e/ Pc>d | Td6- | d6- | d2- d/D/E/F/ G/A/B | %95
 PBA AF/G/ A/B/c | PcB B/A/G/A/ B/c/d/B/ | GB/A/ B4- | B/E/F/G/ A/G/F/G/ A/B/c/A/ | FA/G/ A4- | %100
 A/c/B/A/ ^G/F/E/F/ G/A/B/G/ | EG/F/ G4- | G/B/A/G/ F/E/D/E/ F/G/A/F/ | D=F/E/ F4- | %104
 FE/D/ E/^F/G/A/ B/c/d/e/ | F/E/D/E/ F/G/A/B/ c/e/d/c/ | B/c/d/B/{A} G2 z g- | %107
 g/e/f/g/ a/b/c' d!turn!f | g/D/E/F/ G/A/B/c/ dB | GE A/B/c/d/ e/f/g- | g/b/a/g/ f/e/d/^c/ d/e/f | %111
 Pfe e^c/d/ e/f/g | Pgf fa g/f/e/d/ | bd'/c'/ ba g/f/e/d/ | Te6- | e/e/d/e/ c/e/B/e/ A/e/c/e/ | %116
 Td6- | d/d/c/d/ B/d/A/d/ G/d/B/d/ | cc/B/ cc cc | cc/B/ cc cc | cc/B/ cc cc | c/B/A/G/ F/E/D z2 | %122
 z2 z D G/A/B | PBA AF/G/ A/B/c | PcB Bd c/B/A/G/ | eg/f/ ed c/B/A/G/ | F/E/D/F/ F/D/F/B/ d2- | %127
 dE c4- | c/c/B/A/ B/c/d/B/ E2- | E/B/A/G/ A/B/c/A/ D2- | D/a/g/f/ g/a/b/g/ c/=f/e/d/ | %131
 e/f/g/e/ A/d/c/B/ c/d/e/c/ | F/G/A- A/c/B- B/c/d- | d/=f/e- e/c/d- d/a/g- | %134
 g/b/a/g/ f/e/d/c/ B/A/G/B/ | E-E/4F/4E/4F/4 !trill(!TF3 E/!trill)!F/ | G2 z D G/A/B | %137
 TBA AF/G/ A/B/c | TcB Bd c/B/A/G/ | eg/f/ ed c/B/A/G/ | f/e/d/a/{c} B>A !turn!A>G | !fermata!G6 | %142
 z6 |[M:4/4]"^Andante" B/^d/e/g/ B/d/e/g/ c/B/c/e/ c/B/c/e/ | %144
 A/c/^d/f/ A/c/d/f/ G/F/G/B/ G/F/G/B/ | E/F/^G/B/ e/f/^g/b/ ^ege^c | F/^G/A/^c/ f/^g/a/f/ ^B^dBG | %147
 B/d/^c/^G/ A/^E/F/A/ D/=E/F/A/ d/e/f/A/ | ^DFEG EGEG- | G/_B/A/E/ =F/A/^c/d/ !turn!^g>a Tc>d | %150
 d2 z2 d/f/g/b/ d/f/g/b/ | e/d/e/g/ e/d/e/g/ A/^c/d/f/ A/c/d/f/ | FAFD F/G/A/^d/ f/g/a/f/ | %153
 gbge E/^D/E/^A/ ^c/^d/e/g/ | =f^d e2- e/F/G/e/ Td>e | ^B/^d/e/a/ B/d/e/a/ =B/d/e/g/ B/d/e/g/ | %156
 A/^d/e/f/ A/d/e/f/ G/d/e/b/ G/d/e/b/ | F/^d/e/c'/ F/d/e/c'/ G/d/e/b/ B/d/e/b/ | %158
 ^G/e/d/b/ B/e/d/^g/ c/^d/e/a/ B/d/e/=g/ | ^A/^d/e/g/ B/d/e/g/ ^c/d/e/g/ f/e/d/e/ | !fermata!^d8 | %161
[M:2/2]"^Allegro Moderato" z4 z2 dc | B2 G2 g2 d2 | B2 AG d2 d2 | d2 cB cd e2 | e2 A2 A2 c2- | %166
 c2 BA Bc d2 | d2 G2 G2 g2- |{/a} g2 f4 e2- | e2 d^c BABc | dAB^c defg | abag fed^c | B2 ba gfed | %173
 ^cBAB cdec | a2 A2 A2 !turn!^c2 | d4 z2 f2 | efga defg | c6 BA | GFGA Bcde | dgfe dcBA | %180
 GBcd efge | agfg agfe | fagf edcd | BABc defg | ^c2 a2 B2 g2 | A^cBA G2 g2 | f3 e Pe3 d | %187
 dfed afed | cedc aedc | B^d^cB agfe | ^defg agaf | g2 B2 e2 g2 | b2 ^g2 e2 B2 | ^G2 B2 EFGA | %194
 Bcdc BAB^G | Te8- | e8- | e8- | e4- edcB | cde=f ABcd | Bcde ^GABc | ABcd F^GAB | ^GABE GBed | %203
 c2 A2 a2 e2 | c2{B} A2 e2 e2 | e2 d^c de =f2- | f2 B2 B2 dc | d2 cB cd e2 | e2 A2 A2 B/c/d | %209
{d} c3 B PB3 A | A2 a4 g2- | g2 fe ^d2 B2 | g4 f4 | e6 d^c | B2 b4 a2- | a2 ^gf ^e2 ^c2 | a4 ^g4 | %217
 f4 e4 | d6 ^cB | ^A2 ^c2 F2 !turn!A2 | B2 fe d2 B2 | b2 f2 d2{^c} B2 | gfga gfed | ^cded cBAG | %224
 fefg fed^c | B^cde fg ^A2 | B3 ^c P^A3 B | B2 f2 d2 B2 | z2 a2 f2 ^d2 | z2 c'2 a2 f2 | %230
 ^defg ac'ba | g2 z2 z2 B2 | G2 E2 z2 d2 | B2 ^G2 z2 =f2 | d2 B2 ^G3 A | A2 e2 ^c2 A2 | %236
 z2 g2 e2 ^c2 | z2 _b2 g2 e2 | ^cdef g_bag | f2 z2 z2 A2 | F2 D2 z2 c2 | A2 F2 z2 _e2 | %242
 c2 A2 FAdc | B2 G2 g2 d2 | B2 AG d2 d2 | d2 cB cd e2 | e2 A2 A2 c2- | c2 BA Bc d2 | %248
 d2 G2 G2 =f2- | f2 e4 d2- | d2 cB AGAB | cGAB cde=f | gag=f edcB | A2 ag =fedc | BAGA BcdB | %255
 g2 G2 G2 B2 | c4 z2 e2 | defg cdef | BcdB GFGA | D2 EF GABc | dedc BAGF | E2 ed cBAG | FEDE FGAF | %263
 d2 D2 D2 F2 | G4 z2 B2 | AB^cd GABc | F2 f4 e2- | e2 de P^c3 d | dfed afed | c_edc af=ed | %270
 c'bag fede | fgab c'bc'a | b2 D2 G2 B2 | d2 G2 B2 d2- | d2 ^G2 E2 G2 | B2 d2 B2 ^G2 | e4 d4 | %277
 c6 BA | G2 g4 f2- | f2 ed ^c2 A2 | f4 e4 | d6 cB | A2 a4 g2- | g2 fe ^d2 B2 | g4 f4 | e4 d4- | %286
 d2 cB c4- | cBAB cedc | Bcde GABc | ABcd FGAB | GABc EFGA | FGAD FA d2 | Td8- | d8- | d4 c4- | %295
 cDFA cedc | BGFG g2 d2 | TB2{A} G2 d2 d2 | d2 cB cd e2 | e2 A2 A2 c2- | c2 BA Bc d2 | %301
 d2 G2 G2 c2 | B3 A A3 G | !fermata!G8 |] %304
V:4
 G,,B,,D, G,B,D G,B,,D, G,,B,,G,, | D,DC B,/A,/C/B,/A,/G,/ CA,E, F,G,E, | %2
 A,F,D, G,B,A, B,CG, D2 z | D,,F,,A,, D,F,A, DF,A, D,F,D, | A,,A,G, F,E,D, G,E,B,, ^C,D,B,, | %5
 E,^C,A,, D,F,E, F,G,D, A,A,,G,, | F,,^G,,^A,, B,,^C,^D, E,2 z ^E,2 z | %7
 F,2 z ^G,2 z ^A,2 z B,A,G, | ^A,F,G, E,F,F,, B,,2 F,/E,/ D,/^C,/B,,^D, | %9
 E,B,/A,/G,/F,/ E,E,,G,, A,,2 E,/D,/ ^C,/B,,/A,,C, | D,A,/G,/F,/E,/ D,D,,F, G,A,B, E,F,G, | %11
 ^C,D,E, A,,B,,C, D,F,,G,, A,,G,,A,, | D,,F,,A,, D,F,D, G,B,,D, G,,B,,G,, | %13
 D,DC B,/A,/C/B,/A,/G,/ CA,E, F,G,E, | A,F,D, G,B,A, B,CA, D2 z | %15
 G,,B,,D, G,B,D G,B,,D, G,,B,,G,, | D,DC B,A,G, CA,E, F,G,E, | A,F,D, G,,B,,A,, B,,C,A,, D,2 C, | %18
 B,,^C,^D, E,F,^G, A,2 z ^A,2 z | B,2 z ^C2 z ^D2 z EDC | ^DB,C A,B,B,, E,,2 B,/A,/ G,/F,/E,^G, | %21
 A,E,/D,/C,/B,,/ A,,2 C, D,,2 A,/G,/ F,/E,/D,F, | G,D,/C,/B,,/A,,/ G,,A,,B,, C,D,E, A,,B,,C, | %23
 F,,G,,A,, D,,E,,F,, G,,B,,C, D,C,D, | G,,2 z z2 z =F,,2 z z2 z | E,,2 z z2 z _E,,2 z z2 z | %26
 D,,3 z3 ^C,,6 | D,,12 | z12 |[M:3/4] G,,2 B,,2 G,,2 | D,2 F,2 D,2 | G,2 z B, G,B, | CB, CD EE, | %33
 D,A,/G,/ F,E, F,D, | A,G,/F,/ E,A,, ^C,A,, | D,2 z2 D,,2 | A,,2 z2 E,,2 | A,G, F,E, F,D, | %38
 G,A, G,F, E,D, | E,B,, E,F, G,E, | A,,B,, ^C,B,, A,,G,, | F,,E,, D,,G,, A,,/G,,/A,, | %42
 D,,2 z D,/^C,/ B,,A,, | G,,A,,/B,,/ ^C,/D,/E,/D,/ C,A,, | D,D,, z F,/E,/ D,F, | %45
 A,C/B,/ A,/G,/F,/E,/ D,/C,/B,,/A,,/ | G,,2 z G,/A,/ B,G, | DD, z D,/E,/ F,D, | %48
 G,G,, z B,,/A,,/ G,,B,, | D,=F,/E,/ D,/C,/B,,/A,,/ G,,/=F,,/E,,/D,,/ | C,,C/B,/ CC CC | %51
 CB,/A,/ B,B, B,B, | B,A,/G,/ A,D, G,A, | B,B,, E,F, G,G,, | C,E,/D,/ E,C, D,E, | %55
 F,D, B,,C, D,B,, | E,A,/G,/ F,/G,/D/C/ B,/A,/D, | CC,/B,,/ C,A,, D,D,, | G,,2 z2 G,,2 | %59
 C,2 z2 A,,2 | D,F, G,C, D,D,, | G,,B,/A,/ G,/F,/E,- E,^G, | A,/B,/A,/G,/ F,D,- D,E,/F,/ | %63
 G,/A,/G,/F,/ E,/D,/^C,- C,^D,/E,/ | F,/G,/F,/E,/ ^D,B,, ^C,D, | E,E,, z/ B,,/^C,/^D,/ E,/F,/G, | %66
 PG,F, F,^D,/E,/ F,/G,/A, | PA,G, G,B, A,/G,/F,/E,/ | CE/D/ CB, A,/G,/F,/E,/ | %69
 F,/E,/^D,/^C,/ B,,D, E,G, | C,B,, A,,G,,/A,,/ B,,B,,, | E,,2 z B,, E,D, | E,2 z G,/F,/ G,E, | %73
 F,F,, F,4- | F,^G, ^A,^C F,A, | D,^C, B,,E, F,F,, | B,,B,/A,/ G,E, F,^G, | %77
 A,/B,/A,/G,/ F,D, E,F, | G,G,, z/ F,/G,/A,/ B,B,, | E,/D,/^C,/B,,/ A,,E, A,A,, | %80
 D,,F,/E,/ D,^C, B,,A,, | G,,G,/F,/ G,G, G,G, | G,F,/E,/ F,F, F,F, | F,E,/D,/ E,A,, D,E, | %84
 F,F,, B,,^C, D,D,, | G,,F,, E,,G,, A,,B,, | ^C,,^C, F,E,/D,/ E,^A,, | %87
 B,,E,/D,/ ^C,/E,/A,/G,/ F,/E,/D, | G,G,,/F,,/ G,,E,, A,,A,,, | D,,2 z2 D,2 | G,2 z2 E,2 | %91
 A,^C, D,G, A,A,, | D,,2 z D, G,/A,/B, | PB,A, A,F,/G,/ A,/B,/C | PCB, B,G,/F,/ E,D, | %95
 C,/D,/E,/C,/ D,C, B,,A,, | G,,2 z2 G,,2 | C,2 z2 ^G,,2 | A,,2 z2 F,,2 | B,,2 z2 B,,2 | %100
 E,2 z2 E,,2 | A,,2 z2 A,,2 | D,2 z2 D,,2 | G,,2 z2 G,,2 | C,2 z/ C/B,/A,/ G,G,, | %105
 D,2 z/ D,/C,/B,,/ A,,D, | G,,2 B,,2 G,,2 | D,2 z D,/E,/ F,D, | G,2 z2 G,,2 | C,2 z2 A,,2 | %110
 D,2 z F,/E,/ D,/^C,/B,,/A,,/ | G,,G, ^C,A,,/B,,/ C,A,, | D,2 z2 D,,2 | G,,2 z D/C/ B,/A,/^G,/F,/ | %114
 ^G,E,/F,/ G,B, EG, | A,A,, A,B, CA, | F,D,/E,/ F,A, DF, | G,G,, G,A, B,G, | %118
 E,/G,/F,/G,/ E,/G,/D,/G,/ C,/G,/B,,/G,/ | C,/E,/D,/E,/ C,/E,/B,,/E,/ A,,/E,/G,,/E,/ | %120
 A,,/C,/B,,/C,/ A,,/C,/G,,/C,/ F,,/C,/E,,/C,/ | D,,4 z/ C,/B,,/A,,/ | %122
 B,,/A,,/G,,/F,,/ G,,/A,,/B,,/A,,/ G,,/F,,/E,,/D,,/ | C,,/G,,/C,/D,/ C,/B,,/A,,/G,,/ F,,D,, | %124
 G,,/D,/E,/F,/ G,B, E,G, | C,C F,A, D,F, | D,E, G,,D, z/ G,,/A,,/B,,/ | C,C,, z/ E,/F,/G,/ A,G, | %128
 F,/A,/^G,- G,B,/A,/ G,/F,/E,/D,/ | C,E, A,,A,/G,/ F,/E,/D,/C,/ | B,,D, G,,G, A,B, | %131
 CE, F,^G, A,C, | D,E, F,D, E,F, | G,,G, CB,/A,/ E,C, | A,/G,/F,/E,/ D,B,, E,D, | %135
 C,/B,,/C,/A,,/ D,2 D,,2 | G,,2 z2 G,,2 | C,,2 z C, F,,A,, | D,,D,/C,/ G,,G, z/ G,,/A,,/B,,/ | %139
 C,/D,/E,/D,/ C,B,, A,,B,,/C,/ | D,B,, E,C, D,D,, | !fermata!G,,6 | z6 | %143
[M:4/4] E,E,,E,E,, E,E,,E,E,, | E,E,,E,E,, E,E,,E,E,, | D,D,,D,D,, ^C,^C,,C,C,, | %146
 ^C,^C,,C,C,, C,C,,C,C,, | ^C,^C,,C,C,, =C,=C,,C,C,, | B,,B,,,B,,B,,, _B,,_B,,,B,,B,,, | %149
 A,,A,,,A,,A,,, A,,A,,,A,,A,,, | D,,D,D,,D, D,,D,C,,D, | D,,D,D,,D, D,,D,D,,D, | %152
 C,,C,C,,C, B,,,B,,B,,,B,, | B,,,B,,B,,,B,, B,,,B,,B,,,B,, | B,,,B,,B,,,B,, B,,,B,,B,,,B,, | %155
 E,CE,C D,B,D,B, | C,A,C,A, B,,G,B,,G, | A,,F,A,,F, G,,G,G,,G, | C,^G,B,,G, A,E,ED, | %159
 ^C,^A, G,E, G,C, F,F,, | !fermata!B,,8 |[M:2/2] z8 | z2 G,,A,, B,,2 D,2 | G,F,G,A, B,A,G,F, | %164
 E,4 z2 C,2 | F,,2 F,G, B,A,G,F, | D,4 z2 B,,2 | E,,2 E,F, G,F,E,D, | ^C,2 D,2 G,2 C,2 | %169
 F,2 B,,2 E,2 A,,2 | B,,2 A,,G,, F,,G,,F,,E,, | D,,4 z2 F,,2 | G,,F,,G,,A,, B,,2 G,,2 | %173
 A,,4 z2 ^C,2 | D,E,F,G, A,B,A,G, | F,G,F,E, D,^C,B,,A,, | G,,2 E,2 F,,2 D,2 | E,,2 C,2 D,,2 D,C, | %178
 B,,2 G,,2 G,2 D,2 | B,,2{A,,} G,,2 D,2 D,2 | D,2 C,B,, C,D, E,2 | E,2 A,,2 A,,2 C,2- | %182
 C,2 B,,A,, B,,C, D,2 | D,2 G,,2 G,,2 G,2- | G,2 F,4 E,2- | E,2 D,^C, B,,A,,B,,C, | %186
 D,E,F,G, A,2 A,,2 | D,4 z4 | D,4 z4 | ^D,4 z4 | z2 B,2 ^D,2 B,,2 | E,4 z4 | ^G,4 z4 | B,4 z4 | %194
 z2 E2 ^G,2 E,2 | A,2 A,,2 C,2 A,,2 | z2 E,2 ^G,2 E,2 | z2 A,2 C2 A,2 | E3 D CB,A,^G, | %199
 A,2 B,2 C2 A,2 | ^G,2 F,2 E,2 G,2 | F,2 A,2 B,2 B,,2 | E,4 z2 E,,2 | A,,2 C,B,, A,,2 C,B,, | %204
 A,,2 C,B,, A,,B,,C,B,, | D,4 z2 D,,2 | G,,4 z2 G,,2 | C,4 z2 C,2 | =F,4 z D,C,B,, | %209
 A,,2 D,2 E,2 E,,2 | A,,B,,C,D, E,B,,E,D, | C,B,,C,A,, B,,^C,^D,B,, | E,F,G,A, B,^CB,A, | %213
 G,F,G,E, F,^G,^A,F, | B,,^C,D,E, F,G,F,E, | D,^C,D,B,, C,^D,^E,C, | F,^G,A,B, ^CDCB, | %217
 ^A,F,B,=A, ^G,F,G,^A, | B,A,G,F, E,F,G,E, | F,2 E,2 D,2 ^C,2 | B,,2 D,^C, B,,2 D,C, | %221
 B,,2 D,^C, B,,C,D,C, | E,4 z2 E,,2 | A,,4 z2 A,,2 | D,4 z2 D,2 | G,2 F,E, D,2 ^C,2 | %226
 B,,2 E,2 F,2 F,,2 | B,,D,^C,B,, F,E,D,C, | B,,F,E,^D, A,G,F,E, | ^D,A,G,F, CB,A,G, | %230
 F,E,^D,^C, B,,A,,G,,F,, | E,,G,F,E, B,A,G,F, | E,B,A,^G, DCB,A, | ^G,B,A,G, =FEDC | %234
 B,A,^G,F, E,D,C,B,, | A,,^C,B,,A,, E,D,C,B,, | A,,E,D,^C, G,F,E,D, | ^C,E,D,C, _B,A,G,F, | %238
 E,D,^C,B,, A,,G,,F,,E,, | D,,F,E,D, A,G,F,E, | D,A,G,F, CB,A,G, | F,CB,A, _EDCB, | %242
 A,G,F,E, D,C,B,,A,, | G,,2 G,A, B,2 G,2 | z2 G,,A,, B,,C,D,B,, | C,2 G,,2 A,,2 C,2 | D,4 z2 F,,2 | %247
 G,,A,,B,,C, D,E,D,C, | B,,C,B,,A,, G,,=F,,E,,D,, | C,,C,D,E, =F,E,F,G, | A,2 E,2 =F,2 G,2 | %251
 A,,2 G,,=F,, E,,F,,E,,D,, | C,,4 z2 E,,2 | =F,,E,,F,,G,, A,,2 F,,2 | G,,4 z2 B,,2 | %255
 C,D,E,=F, G,A,G,F, | E,=F,E,D, C,B,,A,,G,, | F,,2 D,2 E,,2 C,2 | D,,2 B,,2 C,,2 C,2 | %259
 B,,2 G,,2 G,2 D,2 | B,,2{A,,} G,,2 D,2 D,2 | D,2 C,B,, C,D, E,2 | E,2 A,,2 A,,2 C,B,, | %263
 C,2 B,,A,, B,,C, D,2 | D,2 G,,2 G,,2 G,2- | G,2 F,4 E,2- | E,2 D,^C, B,,A,,B,,C, | %267
 D,E,F,G, A,2 A,,2 | D,4 z4 | F,4 z4 | A,4 z4 | z2 D2 F,2 D,2 | G,4 z4 | G,,4 z4 | ^G,,4 z4 | %275
 z2 E,2 ^G,,2 E,,2 | A,,E,A,G, F,A,G,F, | E,D,E,C, D,E,F,D, | G,A,B,C DED^C | B,A,B,G, A,B,^CA, | %280
 D,E,F,G, A,B,A,G, | =F,E,F,D, E,^F,^G,E, | A,B,CD EB,ED | CB,CA, B,^C^DB, | E,F,G,A, B,CB,A, | %285
 ^G,E,A,=G, F,D,G,F, | E,2 D,2 E,2 C,2 | D,2 C,2 B,,2 A,,2 | G,,2 B,,2 D,2 G,2 | F,2 E,2 D,2 C,2 | %290
 B,,2 D,2 G,2 G,,2 | D,,2 D,C, B,,2 A,,2 | G,,2 B,,2 E,,2 G,,2 | F,,2 A,,2 D,,2 F,,2 | %294
 E,,2 G,,2 A,,2 A,,,2 | D,,2 D,C, B,,2 A,,2 | G,,2 B,,A,, G,,2 B,,A,, | G,,2 B,,A,, G,,A,,B,,A,, | %298
 C,4 z2 C,2 | F,,4 z2 F,,2 | B,,4 z2 B,,2 | E,,4 z C,B,,A,, | G,,A,,B,,C, D,2 D,,2 | %303
 !fermata!G,,8 |] %304

